Sweet-Rainbow/icons/cutter.svg

<?xml version="1.0" encoding="UTF-8" standalone="no"?>
<!-- Generator: Gravit.io -->

<svg
   xmlns:dc="http://purl.org/dc/elements/1.1/"
   xmlns:cc="http://creativecommons.org/ns#"
   xmlns:rdf="http://www.w3.org/1999/02/22-rdf-syntax-ns#"
   xmlns:svg="http://www.w3.org/2000/svg"
   xmlns="http://www.w3.org/2000/svg"
   xmlns:sodipodi="http://sodipodi.sourceforge.net/DTD/sodipodi-0.dtd"
   xmlns:inkscape="http://www.inkscape.org/namespaces/inkscape"
   style="isolation:isolate"
   viewBox="0 0 36 36"
   width="48"
   height="48"
   version="1.1"
   id="svg9"
   sodipodi:docname="cutter.svg"
   inkscape:version="0.92.4 (5da689c313, 2019-01-14)">
  <metadata
     id="metadata15">
    <rdf:RDF>
      <cc:Work
         rdf:about="">
        <dc:format>image/svg+xml</dc:format>
        <dc:type
           rdf:resource="http://purl.org/dc/dcmitype/StillImage" />
        <dc:title></dc:title>
      </cc:Work>
    </rdf:RDF>
  </metadata>
  <defs
     id="defs13" />
  <sodipodi:namedview
     pagecolor="#ffffff"
     bordercolor="#666666"
     borderopacity="1"
     objecttolerance="10"
     gridtolerance="10"
     guidetolerance="10"
     inkscape:pageopacity="0"
     inkscape:pageshadow="2"
     inkscape:window-width="640"
     inkscape:window-height="480"
     id="namedview11"
     showgrid="false"
     inkscape:zoom="29.365243"
     inkscape:cx="25.325443"
     inkscape:cy="32"
     inkscape:current-layer="svg9"
     units="px" />
  <linearGradient
     id="_lgradient_85"
     x1="0.061897106"
     y1="0.14716151"
     x2="0.99042481"
     y2="0.98658085"
     gradientTransform="matrix(45,0,0,45,1.5,1.5)"
     gradientUnits="userSpaceOnUse">
    <stop
       offset="0%"
       stop-opacity="1"
       style="stop-color:rgb(22,181,228)"
       id="stop2" />
    <stop
       offset="98.26086956521739%"
       stop-opacity="1"
       style="stop-color:rgb(245,32,250)"
       id="stop4" />
  </linearGradient>
  <g
     id="g826"
     transform="matrix(0.8,0,0,0.8,-1.2,-1.2)">
    <path
       id="path7"
       d="M 8.234,26.751 C 8.08,25.857 8,24.938 8,24 8,15.105 15.211,7.894 24.106,7.894 28.382,7.898 32.481,9.602 35.5,12.631 h -7.388 l -5.901,11.278 5.901,11.46 h 7.386 c -3.018,3.028 -7.117,4.732 -11.392,4.737 -4.458,0 -8.492,-1.811 -11.408,-4.737 h 9.523 c 1.417,-10e-4 2.326,-1.598 1.664,-2.925 L 19.367,24 23.511,15.564 c 0.668,-1.328 -0.24,-2.932 -1.661,-2.933 h -5.402 c -0.696,10e-4 -1.336,0.408 -1.663,1.06 z M 25,24 28.5,21.5 32,19 v 5 5 l -3.5,-2.5 z m 7,0 3.5,-2.5 L 39,19 v 5 5 L 35.5,26.5 Z M 5.52,24.81 6,30 4,34 C 2.51,30.747 1.694,27.721 1.52,24.89 L 1.5,24.04 c 0,-0.01 0,-0.03 0,-0.04 C 1.5,18.03 3.87,12.31 8.09,8.09 12.31,3.87 18.03,1.5 24,1.5 c 5.97,0 11.69,2.37 15.91,6.59 4.22,4.22 6.59,9.94 6.59,15.91 0,5.97 -2.37,11.69 -6.59,15.91 C 35.69,44.13 29.96,46.5 24,46.5 17.75,46.5 11.78,43.89 7.52,39.32 6.462,38.251 5.299,36.821 4,35 l 5.09,0.13 1.36,1.46 c 3.5,3.77 8.41,5.91 13.55,5.91 4.9,0 9.61,-1.95 13.08,-5.42 C 40.55,33.61 42.5,28.9 42.5,24 42.5,19.1 40.55,14.39 37.08,10.92 33.61,7.45 28.9,5.5 24,5.5 19.1,5.5 14.39,7.45 10.93,10.91 7.46,14.38 5.51,19.08 5.5,23.98 Z"
       inkscape:connector-curvature="0"
       style="fill:url(#_lgradient_85);fill-rule:evenodd" />
  </g>
</svg>

<?xml version="1.0" encoding="UTF-8" standalone="no"?><!-- Generator: Gravit.io --><svg xmlns="http://www.w3.org/2000/svg" xmlns:xlink="http://www.w3.org/1999/xlink" style="isolation:isolate" viewBox="0 0 48 48" width="48pt" height="48pt"><linearGradient id="_lgradient_85" x1="0.061897106109324806" y1="0.14716151924516707" x2="0.9904248356713994" y2="0.9865808764728623" gradientTransform="matrix(45,0,0,45,1.5,1.5)" gradientUnits="userSpaceOnUse"><stop offset="0%" stop-opacity="1" style="stop-color:rgb(22,181,228)"/><stop offset="98.26086956521739%" stop-opacity="1" style="stop-color:rgb(245,32,250)"/></linearGradient><path d=" M 8.234 26.751 C 8.08 25.857 8 24.938 8 24 C 8 15.105 15.211 7.894 24.106 7.894 C 28.382 7.898 32.481 9.602 35.5 12.631 L 28.112 12.631 L 22.211 23.909 L 28.112 35.369 L 35.498 35.369 C 32.48 38.397 28.381 40.101 24.106 40.106 C 19.648 40.106 15.614 38.295 12.698 35.369 L 22.221 35.369 C 23.638 35.368 24.547 33.771 23.885 32.444 L 19.367 24 L 23.511 15.564 C 24.179 14.236 23.271 12.632 21.85 12.631 L 16.448 12.631 C 15.752 12.632 15.112 13.039 14.785 13.691 L 8.234 26.751 L 8.234 26.751 L 8.234 26.751 Z  M 25 24 L 28.5 21.5 L 32 19 L 32 24 L 32 29 L 28.5 26.5 L 25 24 L 25 24 L 25 24 Z  M 32 24 L 35.5 21.5 L 39 19 L 39 24 L 39 29 L 35.5 26.5 L 32 24 L 32 24 Z  M 5.52 24.81 L 6 30 L 4 34 C 2.51 30.747 1.694 27.721 1.52 24.89 L 1.5 24.04 C 1.5 24.03 1.5 24.01 1.5 24 C 1.5 18.03 3.87 12.31 8.09 8.09 C 12.31 3.87 18.03 1.5 24 1.5 C 29.97 1.5 35.69 3.87 39.91 8.09 C 44.13 12.31 46.5 18.03 46.5 24 C 46.5 29.97 44.13 35.69 39.91 39.91 C 35.69 44.13 29.96 46.5 24 46.5 C 17.75 46.5 11.78 43.89 7.52 39.32 C 6.462 38.251 5.299 36.821 4 35 L 9.09 35.13 L 10.45 36.59 C 13.95 40.36 18.86 42.5 24 42.5 C 28.9 42.5 33.61 40.55 37.08 37.08 C 40.55 33.61 42.5 28.9 42.5 24 C 42.5 19.1 40.55 14.39 37.08 10.92 C 33.61 7.45 28.9 5.5 24 5.5 C 19.1 5.5 14.39 7.45 10.93 10.91 C 7.46 14.38 5.51 19.08 5.5 23.98 L 5.52 24.81 Z " fill-rule="evenodd" fill="url(#_lgradient_85)"/></svg>
